web/public/images/startup-logos/courselift-white.svg

<svg width="304" height="48" viewBox="0 0 304 48" fill="none" xmlns="http://www.w3.org/2000/svg">
<path d="M0 25.4933C0 12.49 9.91258 3 23.2952 3C30.0202 3 35.9785 5.32876 40 9.85164L35.965 13.8092C34.392 12.1083 32.4747 10.7626 30.3409 9.862C28.2072 8.96137 25.9061 8.52648 23.5911 8.58631C13.6785 8.58631 6.32145 15.761 6.32145 25.4933C6.32145 35.2255 13.6785 42.4002 23.5911 42.4002C25.9096 42.4498 28.2122 42.0049 30.3457 41.0951C32.4791 40.1853 34.3947 38.8315 35.965 37.1236L40 41.081C35.965 45.6039 30.074 48 23.228 48C9.89913 47.9731 0 38.4831 0 25.4933Z" fill="white"/>
<path d="M42 31C42 21.0429 49.43 14 59.5272 14C69.6244 14 77 21.0429 77 31C77 40.9571 69.638 48 59.4728 48C49.3075 48 42 40.8897 42 31ZM70.8355 31C70.8355 23.8897 66.0183 19.2889 59.5272 19.2889C53.0361 19.2889 48.1645 23.8897 48.1645 31C48.1645 38.1103 53.0498 42.7786 59.5272 42.7786C66.0047 42.7786 70.8355 38.0563 70.8355 31Z" fill="white"/>
<path d="M114 14V47.6241H108.174V42.5546C106.832 44.3132 105.081 45.7255 103.069 46.6719C101.058 47.6183 98.8452 48.0708 96.6191 47.991C87.8394 47.991 82 43.2342 82 33.3399V14H88.1554V32.6604C88.1554 39.252 91.4942 42.5546 97.3336 42.5546C103.736 42.5546 107.845 38.6132 107.845 31.3828V14H114Z" fill="white"/>
<path d="M139 14V19.7357C138.553 19.6841 138.102 19.662 137.652 19.6696C131.166 19.6696 127.135 23.5551 127.135 30.7181V47H121V14.304H126.798V19.7885C128.982 15.9691 133.135 14 139 14Z" fill="white"/>
<path d="M141 44.1556L143.581 39.3684C147.173 41.6288 151.36 42.8323 155.639 42.8341C161.397 42.8341 163.798 41.1349 163.798 38.3031C163.798 30.8055 142.096 37.2918 142.096 24.0091C142.096 18.0219 147.646 14.0034 156.416 14.0034C160.778 13.9328 165.084 14.9743 168.904 17.024L166.24 21.7976C163.277 19.983 159.834 19.0459 156.333 19.1006C150.893 19.1006 148.229 21.0559 148.229 23.699C148.229 31.5742 170 25.1554 170 38.1143C170 44.1691 164.297 47.9988 155.167 47.9988C149.464 48.0527 143.775 46.3536 141 44.1556Z" fill="white"/>
<path d="M206.839 33.0131H179.957C180.707 38.8571 185.406 42.7485 192.006 42.7485C193.795 42.8118 195.577 42.4834 197.227 41.7859C198.877 41.0884 200.357 40.0385 201.565 38.7089L204.871 42.6139C201.873 46.1283 197.321 48 191.819 48C181.109 48 174 40.9038 174 30.9663C174 21.0289 181.069 14 190.627 14C200.186 14 207 20.9077 207 31.1549C206.979 31.7767 206.925 32.3969 206.839 33.0131V33.0131ZM179.957 28.6638H201.217C200.897 26.0546 199.64 23.6529 197.682 21.9113C195.724 20.1697 193.201 19.2083 190.587 19.2083C187.973 19.2083 185.45 20.1697 183.492 21.9113C181.534 23.6529 180.277 26.0546 179.957 28.6638Z" fill="white"/>
<path d="M215 4H221.266V41.6579H245V47H215V4Z" fill="white"/>
<path d="M249.092 3.96723C249.113 2.9083 249.539 1.8999 250.278 1.15858C251.017 0.417259 252.011 0.0021327 253.046 0.00234455C253.553 -0.0156416 254.059 0.0700024 254.534 0.25426C255.008 0.438518 255.442 0.717695 255.811 1.07551C256.179 1.43332 256.473 1.8626 256.677 2.33826C256.882 2.81391 256.991 3.32642 257 3.84586C257.015 4.93139 256.609 5.97884 255.87 6.75781C255.131 7.53678 254.12 7.98345 253.059 7.99955C251.998 8.01565 250.975 7.59985 250.213 6.84364C249.452 6.08744 249.016 5.05276 249 3.96723H249.092Z" fill="white"/>
<path d="M256 14H250V47H256V14Z" fill="white"/>
<path d="M268.977 11.6199V14.454H278.767V19.3181H269.1V47H263V11.554C263 5.22671 266.949 1.00851 274.124 1.00851C276.568 0.915568 278.979 1.58563 281 2.91988L279.148 7.4149C277.794 6.42572 276.147 5.88494 274.451 5.87262C270.761 5.89899 268.977 7.86307 268.977 11.6199Z" fill="white"/>
<path d="M304 45.677C301.951 47.2652 299.43 48.0832 296.86 47.9933C290.274 47.9933 286.533 44.2899 286.533 37.5564V19.2684H281V14.2991H286.546V7H292.447V14.2991H301.8V19.2684H292.447V37.3141C292.447 40.8963 294.291 42.9028 297.558 42.9028C299.224 42.92 300.848 42.3651 302.169 41.3272L304 45.677Z" fill="white"/>
</svg>

<svg fill="none" height="48" width="304" xmlns="http://www.w3.org/2000/svg"><g fill="#fff"><path d="M0 25.5C0 12.5 10 3 23.3 3 30 3 36 5.3 40 9.9l-4 4a16.3 16.3 0 0 0-12.4-5.3c-10 0-17.3 7.2-17.3 16.9s7.4 16.9 17.3 16.9A16.3 16.3 0 0 0 36 37.1l4 4C36 45.6 30 48 23.2 48 10 48 0 38.5 0 25.5zM42 31c0-10 7.4-17 17.5-17S77 21 77 31s-7.4 17-17.5 17C49.3 48 42 40.9 42 31zm28.8 0c0-7.1-4.8-11.7-11.3-11.7S48.2 23.9 48.2 31 53 42.8 59.5 42.8C66 42.8 70.8 38 70.8 31zM114 14v33.6h-5.8v-5A13.8 13.8 0 0 1 96.6 48C87.8 48 82 43.2 82 33.3V14h6.2v18.7c0 6.6 3.3 9.9 9.1 9.9 6.4 0 10.5-4 10.5-11.2V14zM139 14v5.7h-1.3c-6.5 0-10.6 3.9-10.6 11V47H121V14.3h5.8v5.5C129 16 133.1 14 139 14zM141 44.2l2.6-4.8c3.6 2.2 7.8 3.4 12 3.4 5.8 0 8.2-1.7 8.2-4.5 0-7.5-21.7-1-21.7-14.3 0-6 5.5-10 14.3-10 4.4 0 8.7 1 12.5 3l-2.7 4.8c-3-1.8-6.4-2.8-9.9-2.7-5.4 0-8 2-8 4.6 0 7.9 21.7 1.5 21.7 14.4 0 6-5.7 9.9-14.8 9.9-5.7 0-11.4-1.6-14.2-3.8zM206.8 33H180c.7 5.9 5.4 9.7 12 9.7a12.3 12.3 0 0 0 9.6-4l3.3 4c-3 3.4-7.6 5.3-13 5.3C181 48 174 40.9 174 31c0-10 7-17 16.6-17 9.6 0 16.4 7 16.4 17.2 0 .6 0 1.2-.2 1.8zM180 28.7h21.2a10.8 10.8 0 0 0-10.6-9.5 10.7 10.7 0 0 0-10.6 9.5zM215 4h6.3v37.7H245V47h-30zM249 4c.1-1 .5-2.1 1.3-2.8A4 4 0 0 1 253 0a3.7 3.7 0 0 1 2.8 1 4 4 0 0 1 1.2 2.8c0 1.1-.4 2.2-1.1 3S254 8 253 8s-2.1-.4-2.9-1.2A4.1 4.1 0 0 1 249 4zM256 14h-6v33h6zM269 11.6v2.9h9.8v4.8H269V47H263V11.6C263 5.2 267 1 274.1 1c2.5 0 4.9.6 6.9 2l-1.9 4.4a8 8 0 0 0-4.6-1.5c-3.7 0-5.5 2-5.5 5.7zM304 45.7a11 11 0 0 1-7.1 2.3c-6.6 0-10.4-3.7-10.4-10.4V19.3H281v-5h5.5V7h6v7.3h9.3v5h-9.4v18c0 3.6 1.9 5.6 5.2 5.6 1.6 0 3.2-.5 4.6-1.6z"/></g></svg>
